assets/icon/headSlot.svg

<svg viewBox="0 0 150 143" xmlns="http://www.w3.org/2000/svg"><path d="m105 108.05h-26.35l-.37-42.13h11v-8.62h-29.52v8.62h11l-.41 42.08h-26.35l2.93-63.67 14.07-13.65h27.19l13.89 13.67v.49zm-23.87-2.58h21.24l-2.76-60-12.43-12.26h-25.18l-12.62 12.25-2.76 60h21.24l.33-37h-10.95v-13.7h34.52v13.69h-11z" fill="#f69200" transform="translate(.5 -.25)"/><g fill="none"><path d="m0 0h150"/><path d="m150 143h-150"/></g></svg>

<svg id="Layer_1" data-name="Layer 1" xmlns="http://www.w3.org/2000/svg" viewBox="0 0 150 143"><g id="Layer_2" data-name="Layer 2"><g id="Layer_1-2" data-name="Layer 1-2"><path d="M105,108.05H78.65l-.37-42.13h11V57.3H59.76v8.62h11L70.35,108H44l2.93-63.67L61,30.68H88.19l13.89,13.67v.49Zm-23.87-2.58h21.24l-2.76-60L87.18,33.21H62L49.38,45.46l-2.76,60H67.86l.33-37H57.24V54.76H91.76V68.45h-11Z" transform="translate(0.5 -0.25)" fill="#f69200"/><line x2="150" fill="none"/><line x1="150" y1="143" y2="143" fill="none"/></g></g></svg>
